!!!OTL: Der grausame Bruder.
!!!OTL-incipit: Es warn einmal zwei Koenigskinder,
!!!ARE: Europa, Mitteleuropa, Deutschland (), Brandenburg, Neumark, Fuerstenfelde
!!!YOR: 3, S. 258
!!    1861 aufgezeichnet
!!!SCT: Q0068I
!!!YEM: Copyright 1995, estate of Helmut Schaffrath.
**kern	**text
*ICvox	*
*M3/4	*
*k[f#]	*
*G:	*
!LO:TX:a:t=Brandenburg	!
{4d	Es
=1	=1
2g	warn
4a	ein-
=2	=2
2b	-mal
4dd	ʒwei
=3	=3
(4.b	Kö-
8g)	.
4b	-nigs-
=4	=4
4a	-kin-
4d}	-der,
{4b	der
=5	=5
4g	Bruder,
4f#	.
4g	der
=6	=6
4e	hat-
4f#	-te
4g	die
=7	=7
4.a	Schwe-
8g	-ſter
4f#	ſo
=8	=8
4e	lieb.
4r}	.
{8f#L	Der
8eJ	.
=9	=9
4.d	Bru-
8c#	-der,
4d	der
=10	=10
4.B	hat-
8cn	-te
4d	die
=11	=11
4.e	Schweſter
8d	.
4c	ſo
=12	=12
4B	lieb.
4r}	.
==	==
!!!AGN: Ballade, Schwangerschaft, Moral, Mord
!!!ONB: ESAC (Essen Associative Code) Database: BALLADE
!!!AMT: simple triple
!!!AIN: vox
!!!EED: Helmut Schaffrath
!!!EEV: 1.0
!!!source: Deutsche Volkslieder mit ihren Melodien. Herausgegeben vom Deutschen Volksliedarchiv. Dritter Band Balladen. Berlin 1954.
!!!page: 258
!!!ENC: Anna Maria Matuszewska
!!!EEV: 2025/02/21
*-	*-
